X: 5
T: Blackwell Court
C:Phil Cunningham
M:2/4
L:1/8
K:D
|: D>E B,A, | B,/>A,/B,/<D/ F E/>D/ | E>F EF/<A/ | B/>A/B/<d/ FE/>F/ | D>E C B,/<A,/ | B,/>A,/B,/<D/ F E/>D/ | Ee d/>B/A/<F/ |
|1 E2 E2 :|2 E2 EF<A || B2 B>A | B/>A/B/<d/ FE/>D/ | E>F EF/<A/ | B/>A/B/<d/ AF/>A/ |1 B2 B>A |
B/>A/B/<d/ FE/>D/ | Ee d/>B/A/<F/ | E2 EF/<A/ :|2 B2 B>A | A/>B/c/<d/ FE/>D/ | Ee d/>B/A/<F/ | E2 E2 |]

%%sep 2 1 500

